X:3527
T:Schaff's mit mir, Gott
T:BWV 514
C:Johann Sebastian Bach?
O:Germany
R:Chorale
Z:Transcribed by Frank Nordberg - http://www.musicaviva.com
F:http://abc.musicaviva.com/tunes/bach-johann-sebastian/bwv0514.abc
V:1 Program 1 6 %Harpsichord
V:2 Program 1 6 bass %Harpsichord
M:3/4
L:1/4
K:C
V:1
cBc|(AB)c|(F3/2G/4A/4)G|ED/E/C|
w:Schaff's mit mir, Gott,_ nach Dei---nem Wil---len,
w:du wirst mein W\"un--schen so__ er-f\"ul---len,
V:2
C,D,E,|F,2E,|D,G,G,,|C,G,,C,,|
%
V:1
GAB|c2d|B/A/A2|G3:|
w:es bleibt Dir Al-les heim--ge-stellt;
w:wie's Dei-ner Weis-heit wohl--ge-f\"allt.
V:2
C,2B,,|A,,G,,^F,,|G,,D,D,,|G,,G,/=F,/E,/D,/:|
%
V:1
cde|(AB)c|d3/2e/4f/4e|d3|
w:Du bist mein Va--ter, du__ wirst mich
V:2
E,F,/E,/D,/C,/|F,2E,|B,,G,,C,|G,,G,/A,/B,/G,/|
%
V:1
e/f/4g/4 (f/e/)  (d/c/)|(AB)c|fd2|c3 H |]
w:ver---sor--gen,_ dar--auf hof-fe ich!
V:2
CC,E,|F,E,/D,/E,/C,/|A,F,G,|C,3 H |]
W:
W:Schaff's mit mir, Gott, nach Deinem Willen,
W:es bleibt Dir Alles heimgestellt;
W:du wirst mein W\"unschen so erf\"ullen,
W:wie's Deiner Weisheit wohlgef\"allt.
W:Du bist mein Vater,
W:du wirst mich versorgen,
W:darauf hoffe ich!
W:
W:Schaff's mit mir, Gott, nach Deinem Willen,
W:es bleibt Dir Alles heimgestellt;
W:du wirst mein W\"unschen so erf\"ullen,
W:wie's Deiner Weisheit wohlgef\"allt.
W:Du bist mein Vater,
W:du wirst mich versorgen,
W:darauf hoffe ich!
W:
W:
W:  From Musica Viva - http://www.musicaviva.com
W:  the Internet center for free sheet music downloads.

<html>
<head>
	<title>Collaboration [ABC] </title>
	<link rel='SHORTCUT ICON' href='/~jc/img/music.gif'>
	<meta http-equiv='Content-Type' content='text/html;charset=utf-8'>
	<meta name=viewport content='width=device-width'>
	<meta name='keywords' content='sheet,music,musician,musical,ABC,notation,instrument,lesson,manuscript'>
<style type='text/css'>
	body          {margin:0;padding:0;width:'100%';height:'100%';border:1px dotted blue;}
	div.inline    {margin:0;padding:0;width:'100%';height:'100%';border:1px dotted red;}
	div.exit      {margin:0;padding:0;width:'100%';height:'100%';border:1px dotted orange;}
	object.inline {margin:0;padding:0;width:'100%';height:'100%';border:1px dotted green;}
</style>
</head>
<body>
.<br>
.<br>
.<br>
.<br>
<center>
</center>
<hr><TT><pre>
